X:2987
T:Sitz a klans Vogerl
C:anon.
O:Germany?
Z:Transcribed by Frank Nordberg - http://www.musicaviva.com
F:http://abc.musicaviva.com/tunes/germany/sitz-a-klans-vogerl.abc
M:3/4
L:1/4
K:A
ccc|dcd|ecA|ccc|
w:Sitzt a klans Vo-gerl im Tan-na-bam tuat nix als
dcd|e3|ccc|dcd|
w:sin-ga und Schrein: was wird denn das f\"ur a
ecA||ccc|edB|A3|]
w:Vo-gerl sein? das mu\ss a Nach-ti-gal sein
W:
W:Sitzt a klans Vogerl im Tannabam
W:tuat nix als singa und Schrein:
W:was wird denn das f\"ur a Vogerl sein?
W:das mu\ss a Nachtigal sein.
W:
W:
W:  From Musica Viva - http://www.musicaviva.com
W:  the Internet center for free sheet music downloads.

